public/svg/git.svg

<svg viewBox="0 0 32 32" fill="none" xmlns="http://www.w3.org/2000/svg"><g id="SVGRepo_bgCarrier" stroke-width="0"></g><g id="SVGRepo_tracerCarrier" stroke-linecap="round" stroke-linejoin="round"></g><g id="SVGRepo_iconCarrier"> <path d="M2.58536 17.4132C1.80488 16.6327 1.80488 15.3673 2.58536 14.5868L14.5868 2.58536C15.3673 1.80488 16.6327 1.80488 17.4132 2.58536L29.4146 14.5868C30.1951 15.3673 30.1951 16.6327 29.4146 17.4132L17.4132 29.4146C16.6327 30.1951 15.3673 30.1951 14.5868 29.4146L2.58536 17.4132Z" fill="#EE513B" data-darkreader-inline-fill="" style="--darkreader-inline-fill: #a5210e;"></path> <path d="M12.1489 5.06152L10.9336 6.27686L14.0725 9.41577C13.9455 9.68819 13.8746 9.99201 13.8746 10.3124C13.8746 11.222 14.4461 11.9981 15.2496 12.3012V19.9798C14.4461 20.2829 13.8746 21.059 13.8746 21.9686C13.8746 23.1422 14.826 24.0936 15.9996 24.0936C17.1732 24.0936 18.1246 23.1422 18.1246 21.9686C18.1246 21.144 17.6549 20.429 16.9684 20.0768V12.3117L19.9689 15.3122C19.8481 15.5791 19.7809 15.8754 19.7809 16.1874C19.7809 17.361 20.7323 18.3124 21.9059 18.3124C23.0795 18.3124 24.0309 17.361 24.0309 16.1874C24.0309 15.0138 23.0795 14.0624 21.9059 14.0624C21.6778 14.0624 21.4582 14.0983 21.2522 14.1648L18.0297 10.9423C18.0914 10.7433 18.1246 10.5317 18.1246 10.3124C18.1246 9.13878 17.1732 8.18738 15.9996 8.18738C15.7803 8.18738 15.5688 8.22061 15.3697 8.2823L12.1489 5.06152Z" fill="white" data-darkreader-inline-fill="" style="--darkreader-inline-fill: #181a1b;"></path> </g></svg>

<?xml version="1.0" encoding="UTF-8"?>
<svg fill="none" viewBox="0 0 32 32" xmlns="http://www.w3.org/2000/svg">
<title>GIT icon</title>
<path d="m2.5854 17.413c-0.78048-0.7805-0.78048-2.0459 0-2.8264l12.001-12.001c0.7805-0.78048 2.0459-0.78048 2.8264 0l12.001 12.001c0.7805 0.7805 0.7805 2.0459 0 2.8264l-12.001 12.001c-0.7805 0.7805-2.0459 0.7805-2.8264 0l-12.001-12.001z" fill="#EE513B" style="--darkreader-inline-fill:#a5210e" data-darkreader-inline-fill=""/>
<path d="m12.149 5.0615-1.2153 1.2153 3.1389 3.1389c-0.127 0.27242-0.1979 0.57624-0.1979 0.89663 0 0.9096 0.5715 1.6857 1.375 1.9888v7.6786c-0.8035 0.3031-1.375 1.0792-1.375 1.9888 0 1.1736 0.9514 2.125 2.125 2.125s2.125-0.9514 2.125-2.125c0-0.8246-0.4697-1.5396-1.1562-1.8918v-7.7651l3.0005 3.0005c-0.1208 0.2669-0.188 0.5632-0.188 0.8752 0 1.1736 0.9514 2.125 2.125 2.125s2.125-0.9514 2.125-2.125-0.9514-2.125-2.125-2.125c-0.2281 0-0.4477 0.0359-0.6537 0.1024l-3.2225-3.2225c0.0617-0.199 0.0949-0.4106 0.0949-0.6299 0-1.1736-0.9514-2.125-2.125-2.125-0.2193 0-0.4308 0.03323-0.6299 0.09492l-3.2208-3.2208z" fill="#fff" style="--darkreader-inline-fill:#181a1b" data-darkreader-inline-fill=""/>
</svg>
